X:48
T:Sally Brown (a)
M:C|
L:1/8
Q:1/4=150
K:C
G2|\
C2E2 G2cB|A2G2 E3G|c4   d2cd|e2d2 c4|
e2d2 c2A2|G2E2 DC3|G2G2 GGG2|A2B2 c2||
